;FLAVOR:UltiGCode
;TIME:17048
;MATERIAL:31035
;MATERIAL2:0
;NOZZLE_DIAMETER:0.4
;MINX:59.895
;MINY:28.934
;MINZ:0.27
;MAXX:163.105
;MAXY:153.59
;MAXZ:31.47
;Generated with Cura_SteamEngine 5.2.2
M82 ;absolute extrusion mode
G0 F3000 Y50 ;avoid prime blob
G92 E0
G92 E0
G10
;LAYER_COUNT:209
;LAYER:0
M107
G0 F9000 X72.082 Y31.097 Z0.27
;TYPE:SKIRT
G11
G1 F1800 X72.284 Y30.634 E0.05456
G1 X72.893 Y29.831 E0.1634
G1 X73.722 Y29.258 E0.27224
G1 X74.688 Y28.97 E0.3811
G1 X75.335 Y28.935 E0.45108
G1 X147.244 Y28.934 E8.21725
G1 X148.281 Y28.949 E8.32926
G1 X148.935 Y29.117 E8.40219
G1 X149.399 Y29.319 E8.45684
G1 X150.203 Y29.926 E8.56564
G1 X150.778 Y30.754 E8.67451
G1 X151.068 Y31.719 E8.78334
G1 X151.104 Y32.374 E8.85418
G1 X151.105 Y54.77 E11.27295
G1 X151.145 Y57.567 E11.57506
G1 X151.26 Y60.284 E11.86876
G1 X151.455 Y63.03 E12.16607
G1 X151.723 Y65.736 E12.45975
G1 X152.071 Y68.459 E12.75623
G1 X152.496 Y71.16 E13.05152
G1 X152.999 Y73.868 E13.34899
G1 X153.571 Y76.525 E13.64252
G1 X154.219 Y79.172 E13.93684
G1 X154.946 Y81.812 E14.23257
G1 X155.756 Y84.459 E14.53153
G1 X156.631 Y87.054 E14.8273
G1 X157.567 Y89.59 E15.11924
G1 X158.601 Y92.165 E15.41893
G1 X159.693 Y94.675 E15.71455
G1 X160.838 Y97.117 E16.00584
G1 X162.199 Y99.818 E16.33249
G1 X162.662 Y101.02 E16.4716
G1 X162.939 Y102.22 E16.60461
G1 X163.034 Y102.883 E16.67694
G1 X163.105 Y104.063 E16.80461
G1 X163.105 Y142.785 E20.98659
G1 X163.091 Y143.792 E21.09536
G1 X162.999 Y144.902 E21.21565
G1 X162.734 Y146.206 E21.35936
G1 X162.249 Y147.559 E21.51459
G1 X161.575 Y148.837 E21.67063
G1 X160.734 Y149.993 E21.82502
G1 X159.729 Y151.028 E21.98083
G1 X158.737 Y151.79 E22.11592
G1 X158.163 Y152.16 E22.18968
G1 X157.204 Y152.667 E22.30683
G1 X156.172 Y153.068 E22.42641
G1 X155.526 Y153.258 E22.49913
G1 X154.446 Y153.481 E22.61823
G1 X153.675 Y153.546 E22.70179
G1 X152.898 Y153.589 E22.78584
G1 X70.669 Y153.59 E31.66657
G1 X69.662 Y153.574 E31.77534
G1 X68.585 Y153.484 E31.89206
G1 X67.286 Y153.221 E32.0352
G1 X65.924 Y152.733 E32.19145
G1 X64.649 Y152.06 E32.34716
G1 X63.481 Y151.21 E32.50317
G1 X62.6 Y150.351 E32.63606
G1 X62.154 Y149.836 E32.70964
G1 X61.504 Y148.947 E32.82858
G1 X60.864 Y147.805 E32.96996
G1 X60.415 Y146.651 E33.10369
G1 X60.225 Y146.002 E33.17673
G1 X60.004 Y144.927 E33.29526
G1 X59.939 Y144.162 E33.37817
G1 X59.895 Y143.161 E33.48639
G1 X59.895 Y104.654 E37.64514
G1 X59.911 Y103.646 E37.75402
G1 X60.001 Y102.57 E37.87063
G1 X60.227 Y101.457 E37.99329
G1 X60.42 Y100.806 E38.06662
G1 X60.828 Y99.755 E38.18838
G1 X62.001 Y97.448 E38.4679
G1 X63.172 Y94.972 E38.7637
G1 X64.277 Y92.452 E39.06088
G1 X65.311 Y89.906 E39.35766
G1 X66.253 Y87.377 E39.64912
G1 X67.144 Y84.765 E39.94718
G1 X67.961 Y82.131 E40.24502
G1 X68.683 Y79.539 E40.53561
G1 X69.359 Y76.821 E40.8381
G1 X69.939 Y74.175 E41.13065
G1 X70.445 Y71.506 E41.42404
G1 X70.882 Y68.779 E41.72231
G1 X71.239 Y66.063 E42.01816
G1 X71.519 Y63.345 E42.31326
G1 X71.719 Y60.643 E42.60588
G1 X71.846 Y57.888 E42.90373
G1 X71.895 Y54.765 E43.24106
G1 X71.895 Y32.755 E45.61814
G1 X71.912 Y31.755 E45.72615
G1 X72.082 Y31.097 E45.79955
G10
;MESH:Body347.stl
G0 F9000 X74.399 Y32.548
G0 X75.295 Y32.334
;TYPE:WALL-OUTER
G11
G1 F1800 X75.296 Y88.243 E52.44154
G1 X147.705 Y88.244 E61.04373
G1 X147.705 Y32.334 E67.68584
G1 X75.295 Y32.334 E76.28815
G0 F9000 X75.295 Y32.534
G10
G0 X75.565 Y32.604
G0 X75.515 Y46.559
G0 X78.625 Y46.491
G0 X79.205 Y46.441
G11
G1 F1800 X79.266 Y45.429 E76.40859
G1 X79.456 Y44.403 E76.53255
G1 X79.763 Y43.433 E76.65342
G1 X80.199 Y42.49 E76.77684
G1 X80.714 Y41.655 E76.89339
G1 X81.365 Y40.846 E77.01675
G1 X82.084 Y40.144 E77.13613
G1 X82.926 Y39.506 E77.26163
G1 X83.805 Y39.001 E77.38207
G1 X84.72 Y38.613 E77.50014
G1 X85.743 Y38.319 E77.62659
G1 X86.713 Y38.17 E77.74318
G1 X87.767 Y38.137 E77.86845
G1 X88.73 Y38.226 E77.98335
G1 X89.748 Y38.444 E78.10703
G1 X90.738 Y38.79 E78.23161
G1 X91.624 Y39.231 E78.34919
G1 X92.509 Y39.816 E78.47522
G1 X93.266 Y40.465 E78.59368
G1 X93.971 Y41.237 E78.71788
G1 X94.561 Y42.071 E78.83925
G1 X95.033 Y42.952 E78.95798
G1 X95.401 Y43.899 E79.07868
G1 X95.657 Y44.914 E79.20304
G1 X95.782 Y45.94 E79.32583
G1 X95.778 Y46.95 E79.44582
G1 X95.657 Y47.933 E79.56348
G1 X95.408 Y48.934 E79.68602
G1 X95.043 Y49.881 E79.80659
G1 X94.561 Y50.783 E79.92809
G1 X93.977 Y51.612 E80.04856
G1 X93.283 Y52.375 E80.17109
G1 X92.497 Y53.049 E80.2941
G1 X91.653 Y53.609 E80.41443
G1 X90.73 Y54.07 E80.537
G1 X89.796 Y54.402 E80.65476
G1 X88.769 Y54.626 E80.77964
G1 X87.777 Y54.719 E80.898
G1 X86.746 Y54.689 E81.02054
G1 X85.725 Y54.531 E81.14327
G1 X84.731 Y54.247 E81.26609
G1 X83.787 Y53.847 E81.38789
G1 X82.928 Y53.351 E81.50573
G1 X82.092 Y52.719 E81.63023
G1 X81.38 Y52.027 E81.74818
G1 X80.713 Y51.2 E81.8744
G1 X80.204 Y50.376 E81.98947
G1 X79.753 Y49.399 E82.1173
G1 X79.455 Y48.449 E82.23559
G1 X79.268 Y47.457 E82.35551
G1 X79.205 Y46.441 E82.47644
G0 F9000 X79.217 Y46.242
G10
G0 X78.71 Y46.559
G0 X79.551 Y49.535
G0 X79.99 Y50.482
G0 X80.54 Y51.369
G0 X81.217 Y52.202
G0 X81.954 Y52.915
G0 X82.815 Y53.561
G0 X83.692 Y54.066
G0 X84.7 Y54.488
G0 X85.693 Y54.77
G0 X86.738 Y54.927
G0 X87.78 Y54.958
G0 X88.838 Y54.856
G0 X89.852 Y54.633
G0 X90.85 Y54.276
G0 X91.79 Y53.803
G0 X92.657 Y53.228
G0 X93.461 Y52.534
G0 X94.159 Y51.767
G0 X94.771 Y50.896
G0 X95.264 Y49.971
G0 X96.361 Y46.426
G0 X104.125 Y46.439
G0 X104.705 Y46.454
G11
G1 F1800 X104.766 Y45.429 E82.59843
G1 X104.956 Y44.403 E82.72239
G1 X105.263 Y43.433 E82.84326
G1 X105.699 Y42.491 E82.96657
G1 X106.214 Y41.655 E83.08322
G1 X106.865 Y40.846 E83.20659
G1 X107.584 Y40.144 E83.32597
G1 X108.426 Y39.506 E83.45147
G1 X109.305 Y39.001 E83.5719
G1 X110.22 Y38.613 E83.68997
G1 X111.243 Y38.319 E83.81642
G1 X112.213 Y38.17 E83.93301
G1 X113.267 Y38.137 E84.05829
G1 X114.23 Y38.226 E84.17318
G1 X115.248 Y38.444 E84.29686
G1 X116.238 Y38.79 E84.42145
G1 X117.124 Y39.231 E84.53902
G1 X118.009 Y39.816 E84.66505
G1 X118.766 Y40.465 E84.78351
G1 X119.471 Y41.237 E84.90771
G1 X120.061 Y42.071 E85.02908
G1 X120.533 Y42.952 E85.14782
G1 X120.901 Y43.899 E85.26851
G1 X121.157 Y44.914 E85.39287
G1 X121.28 Y45.914 E85.51257
G1 X121.278 Y46.95 E85.63565
G1 X121.157 Y47.933 E85.75331
G1 X120.904 Y48.946 E85.87735
G1 X120.543 Y49.881 E85.99642
G1 X120.055 Y50.794 E86.1194
G1 X119.467 Y51.625 E86.24034
G1 X118.773 Y52.385 E86.36261
G1 X118.004 Y53.045 E86.483
G1 X117.144 Y53.614 E86.60551
G1 X116.23 Y54.07 E86.72685
G1 X115.296 Y54.402 E86.84461
G1 X114.285 Y54.624 E86.96758
G1 X113.277 Y54.719 E87.08786
G1 X112.249 Y54.689 E87.21004
G1 X111.241 Y54.535 E87.33118
G1 X110.231 Y54.247 E87.45595
G1 X109.287 Y53.847 E87.57775
G1 X108.423 Y53.348 E87.69628
G1 X107.592 Y52.719 E87.8201
G1 X106.879 Y52.026 E87.93822
G1 X106.213 Y51.2 E88.06427
G1 X105.704 Y50.376 E88.17933
G1 X105.253 Y49.399 E88.30717
G1 X104.955 Y48.449 E88.42545
G1 X104.766 Y47.435 E88.54799
G1 X104.705 Y46.454 E88.66476
G0 F9000 X104.716 Y46.255
G0 X104.306 Y46.479
;TYPE:WALL-INNER
G1 F1800 X104.367 Y45.405 E88.77513
G1 X104.556 Y44.354 E88.88469
G1 X104.872 Y43.336 E88.99406
G1 X105.325 Y42.344 E89.10594
G1 X105.917 Y41.384 E89.22166
G1 X106.585 Y40.56 E89.3305
G1 X107.304 Y39.858 E89.4336
G1 X108.163 Y39.201 E89.54455
G1 X109.084 Y38.665 E89.65388
G1 X110.064 Y38.245 E89.76328
G1 X111.186 Y37.923 E89.88304
G1 X112.152 Y37.774 E89.98333
G1 X113.248 Y37.737 E90.09584
G1 X114.267 Y37.828 E90.2008
G1 X115.404 Y38.073 E90.32014
G1 X116.416 Y38.432 E90.43031
G1 X117.302 Y38.873 E90.53185
G1 X118.269 Y39.512 E90.65077
G1 X119.079 Y40.212 E90.76061
G1 X119.797 Y41.005 E90.87037
G1 X120.374 Y41.818 E90.97265
G1 X120.916 Y42.83 E91.09044
G1 X121.274 Y43.755 E91.1922
G1 X121.554 Y44.865 E91.30966
G1 X121.681 Y45.921 E91.41878
G1 X121.678 Y46.963 E91.52569
G1 X121.553 Y47.994 E91.63225
G1 X121.286 Y49.066 E91.74559
G1 X120.912 Y50.036 E91.85226
G1 X120.375 Y51.035 E91.96863
G1 X119.789 Y51.863 E92.0727
G1 X119.063 Y52.661 E92.18339
G1 X118.258 Y53.354 E92.29237
G1 X117.358 Y53.952 E92.40324
G1 X116.394 Y54.435 E92.51386
G1 X115.414 Y54.784 E92.6206
G1 X114.379 Y55.013 E92.72936
G1 X113.29 Y55.119 E92.84162
G1 X112.221 Y55.088 E92.95134
G1 X111.188 Y54.932 E93.05853
G1 X110.144 Y54.64 E93.16975
G1 X109.133 Y54.217 E93.2822
G1 X108.213 Y53.688 E93.39108
G1 X107.359 Y53.046 E93.5007
G1 X106.597 Y52.31 E93.60939
G1 X105.916 Y51.471 E93.72026
G1 X105.364 Y50.586 E93.82728
G1 X104.871 Y49.519 E93.94787
G1 X104.579 Y48.593 E94.04749
G1 X104.376 Y47.533 E94.15822
G1 X104.306 Y46.479 E94.2666
G10
G0 F9000 X96.361 Y46.423
G0 X78.805 Y46.441
G11
G1 F1800 X78.875 Y45.332 E94.38061
G1 X79.056 Y44.354 E94.48266
G1 X79.372 Y43.336 E94.59202
G1 X79.859 Y42.28 E94.71133
G1 X80.374 Y41.445 E94.81199
G1 X81.037 Y40.613 E94.92114
G1 X81.804 Y39.858 E95.03156
G1 X82.663 Y39.201 E95.14252
G1 X83.584 Y38.665 E95.25185
G1 X84.564 Y38.245 E95.36125
G1 X85.686 Y37.923 E95.48101
G1 X86.652 Y37.774 E95.58129
G1 X87.748 Y37.737 E95.69381
G1 X88.767 Y37.828 E95.79877
G1 X89.904 Y38.073 E95.91811
G1 X90.916 Y38.432 E96.02828
G1 X91.802 Y38.873 E96.12982
G1 X92.769 Y39.512 E96.24874
G1 X93.579 Y40.212 E96.35858
G1 X94.297 Y41.005 E96.46833
G1 X94.874 Y41.818 E96.57062
G1 X95.416 Y42.83 E96.68841
G1 X95.774 Y43.755 E96.79017
G1 X96.054 Y44.865 E96.90762
G1 X96.182 Y45.941 E97.0188
G1 X96.175 Y46.998 E97.12725
G1 X96.045 Y48.029 E97.23387
G1 X95.796 Y49.03 E97.3397
G1 X95.427 Y50.002 E97.44637
G1 X94.875 Y51.035 E97.56654
G1 X94.257 Y51.901 E97.6757
G1 X93.576 Y52.647 E97.77933
G1 X92.767 Y53.346 E97.88903
G1 X91.829 Y53.969 E98.00456
G1 X90.894 Y54.435 E98.11175
G1 X89.914 Y54.784 E98.21848
G1 X88.841 Y55.02 E98.3312
G1 X87.779 Y55.119 E98.44063
G1 X86.71 Y55.087 E98.55036
G1 X85.615 Y54.916 E98.66407
G1 X84.644 Y54.64 E98.76764
G1 X83.587 Y54.193 E98.88539
G1 X82.728 Y53.697 E98.98716
G1 X81.813 Y53.006 E99.1048
G1 X81.101 Y52.314 E99.20667
G1 X80.416 Y51.471 E99.31812
G1 X79.864 Y50.586 E99.42513
G1 X79.371 Y49.519 E99.54573
G1 X79.079 Y48.593 E99.64535
G1 X78.874 Y47.526 E99.75682
G1 X78.805 Y46.441 E99.86837
G10
G0 F9000 X78.71 Y46.559
G0 X78.879 Y44.322
G0 X75.515 Y44.322
G0 X75.695 Y32.734
G11
G1 F1800 X75.696 Y87.843 E105.52255
G1 X147.305 Y87.844 E112.86964
G1 X147.305 Y32.734 E118.52392
G1 X75.695 Y32.734 E125.87111
G0 F9000 X76.076 Y33.115
;TYPE:SKIN
G1 F1800 X76.076 Y87.463 E130.8896
G1 X146.925 Y87.464 E137.4318
G1 X146.925 Y33.114 E142.45048
G1 X76.076 Y33.115 E148.99267
G10
G0 F9000 X75.795 Y33.115
G0 X75.515 Y46.559
G0 X78.625 Y46.491
G0 X78.423 Y46.456
G11
G1 F1800 X78.496 Y45.307 E149.09899
G1 X78.69 Y44.249 E149.19831
G1 X79.022 Y43.176 E149.30203
G1 X79.495 Y42.153 E149.4061
G1 X80.061 Y41.227 E149.50631
G1 X80.772 Y40.337 E149.6115
G1 X81.59 Y39.537 E149.71715
G1 X82.498 Y38.852 E149.82218
G1 X83.391 Y38.336 E149.91742
G1 X84.436 Y37.887 E150.02244
G1 X85.58 Y37.555 E150.13244
G1 X86.646 Y37.391 E150.23203
G1 X87.766 Y37.357 E150.3355
G1 X88.873 Y37.46 E150.43816
G1 X89.993 Y37.703 E150.54399
G1 X90.996 Y38.053 E150.64208
G1 X91.97 Y38.532 E150.74231
G1 X92.96 Y39.176 E150.85137
G1 X93.86 Y39.955 E150.96128
G1 X94.592 Y40.764 E151.06202
G1 X95.24 Y41.688 E151.16624
G1 X95.73 Y42.604 E151.26216
G1 X96.158 Y43.692 E151.37012
G1 X96.43 Y44.783 E151.47395
G1 X96.561 Y45.868 E151.57486
G1 X96.554 Y47.035 E151.68263
G1 X96.43 Y48.055 E151.77751
G1 X96.145 Y49.193 E151.88584
G1 X95.767 Y50.172 E151.98274
G1 X95.213 Y51.216 E152.09188
G1 X94.569 Y52.124 E152.19467
G1 X93.776 Y52.983 E152.30262
G1 X92.948 Y53.687 E152.40298
G1 X92.012 Y54.303 E152.50645
G1 X91.007 Y54.8 E152.60998
G1 X90.027 Y55.148 E152.706
G1 X88.865 Y55.403 E152.81586
G1 X87.802 Y55.499 E152.91441
G1 X86.674 Y55.468 E153.01861
G1 X85.51 Y55.281 E153.12747
G1 X84.468 Y54.984 E153.22753
G1 X83.456 Y54.556 E153.32899
G1 X82.435 Y53.959 E153.4382
G1 X81.623 Y53.344 E153.53226
G1 X80.801 Y52.554 E153.63753
G1 X80.047 Y51.607 E153.74931
G1 X79.487 Y50.689 E153.84861
G1 X79.015 Y49.653 E153.95373
G1 X78.703 Y48.661 E154.04976
G1 X78.5 Y47.601 E154.14942
G1 X78.423 Y46.456 E154.25538
G10
G0 F9000 X78.71 Y46.559
G0 X79.551 Y49.535
G0 X79.99 Y50.482
G0 X80.54 Y51.369
G0 X81.217 Y52.202
G0 X81.954 Y52.915
G0 X82.815 Y53.561
G0 X83.692 Y54.066
G0 X84.7 Y54.488
G0 X85.693 Y54.77
G0 X86.738 Y54.927
G0 X87.78 Y54.958
G0 X88.838 Y54.856
G0 X89.852 Y54.633
G0 X90.85 Y54.276
G0 X91.79 Y53.803
G0 X92.657 Y53.228
G0 X93.461 Y52.534
G0 X94.159 Y51.767
G0 X94.771 Y50.896
G0 X95.264 Y49.971
G0 X96.361 Y46.531
G0 X104.125 Y46.439
G0 X103.923 Y46.454
G11
G1 F1800 X103.999 Y45.283 E154.36374
G1 X104.206 Y44.19 E154.46646
G1 X104.533 Y43.151 E154.56704
G1 X104.995 Y42.153 E154.6686
G1 X105.562 Y41.227 E154.76886
G1 X106.289 Y40.318 E154.87634
G1 X107.076 Y39.549 E154.97794
G1 X107.998 Y38.852 E155.08467
G1 X108.891 Y38.336 E155.17991
G1 X109.936 Y37.887 E155.28493
G1 X111.08 Y37.555 E155.39493
G1 X112.146 Y37.391 E155.49452
G1 X113.266 Y37.357 E155.59799
G1 X114.373 Y37.46 E155.70065
G1 X115.493 Y37.703 E155.80648
G1 X116.496 Y38.053 E155.90457
G1 X117.47 Y38.532 E156.0048
G1 X118.46 Y39.176 E156.11385
G1 X119.36 Y39.955 E156.22377
G1 X120.092 Y40.764 E156.32451
G1 X120.685 Y41.598 E156.41901
G1 X121.231 Y42.603 E156.52462
G1 X121.629 Y43.614 E156.62495
G1 X121.928 Y44.78 E156.7361
G1 X122.06 Y45.89 E156.83932
G1 X122.057 Y46.997 E156.94154
G1 X121.928 Y48.057 E157.04014
G1 X121.633 Y49.228 E157.15165
G1 X121.257 Y50.204 E157.24823
G1 X120.687 Y51.254 E157.35855
G1 X120.081 Y52.106 E157.4551
G1 X119.328 Y52.936 E157.55858
G1 X118.456 Y53.681 E157.66449
G1 X117.53 Y54.293 E157.76698
G1 X116.507 Y54.8 E157.87241
G1 X115.528 Y55.148 E157.96835
G1 X114.414 Y55.394 E158.0737
G1 X113.284 Y55.499 E158.17849
G1 X112.159 Y55.465 E158.28242
G1 X111.087 Y55.301 E158.38256
G1 X109.956 Y54.98 E158.49112
G1 X108.953 Y54.553 E158.59178
G1 X107.953 Y53.972 E158.69858
G1 X107.126 Y53.348 E158.79424
G1 X106.314 Y52.564 E158.89847
G1 X105.576 Y51.654 E159.00666
G1 X105.015 Y50.746 E159.10521
G1 X104.521 Y49.675 E159.21412
G1 X104.203 Y48.662 E159.31217
G1 X103.997 Y47.583 E159.4136
G1 X103.923 Y46.454 E159.51808
G10
G0 F9000 X104.211 Y46.559
G0 X104.722 Y44.35
G0 X105.052 Y43.321
G0 X105.485 Y42.384
G0 X106.042 Y41.486
G0 X106.71 Y40.661
G0 X107.455 Y39.94
G0 X108.316 Y39.294
G0 X109.208 Y38.783
G0 X110.175 Y38.376
G0 X111.189 Y38.086
G0 X112.229 Y37.929
G0 X113.27 Y37.898
G0 X114.328 Y37.999
G0 X115.342 Y38.22
G0 X116.35 Y38.581
G0 X117.281 Y39.046
G0 X118.148 Y39.622
G0 X118.806 Y40.189
G0 X121.045 Y42.677
G0 X133.292 Y32.934
G0 X146.724 Y33.587
G11
G1 F1800 X146.451 Y33.314 E159.55373
G0 F9000 X145.886 Y33.314
G1 F1800 X146.724 Y34.153 E159.66322
G0 F9000 X146.724 Y34.718
G1 F1800 X145.32 Y33.314 E159.84657
G0 F9000 X144.754 Y33.314
G1 F1800 X146.724 Y35.284 E160.10383
G0 F9000 X146.724 Y35.85
G1 F1800 X144.188 Y33.314 E160.435
G0 F9000 X143.623 Y33.314
G1 F1800 X146.724 Y36.415 E160.83996
G0 F9000 X146.724 Y36.981
G1 F1800 X143.057 Y33.314 E161.31883
G0 F9000 X142.491 Y33.314
G1 F1800 X146.724 Y37.547 E161.87161
G0 F9000 X146.724 Y38.113
G1 F1800 X141.926 Y33.314 E162.49824
G0 F9000 X141.36 Y33.314
G1 F1800 X146.724 Y38.678 E163.19871
G0 F9000 X146.724 Y39.244
G1 F1800 X140.794 Y33.314 E163.9731
G0 F9000 X140.229 Y33.314
G1 F1800 X146.724 Y39.81 E164.82134
G0 F9000 X146.724 Y40.375
G1 F1800 X139.663 Y33.314 E165.74342
G0 F9000 X139.097 Y33.314
G1 F1800 X146.724 Y40.941 E166.73942
G0 F9000 X146.724 Y41.507
G1 F1800 X138.532 Y33.314 E167.80927
G0 F9000 X137.966 Y33.314
G1 F1800 X146.724 Y42.072 E168.95296
G0 F9000 X146.724 Y42.638
G1 F1800 X137.4 Y33.314 E170.17057
G0 F9000 X136.835 Y33.314
G1 F1800 X146.724 Y43.204 E171.46202
G0 F9000 X146.724 Y43.769
G1 F1800 X136.269 Y33.314 E172.82733
G0 F9000 X135.703 Y33.314
G1 F1800 X146.724 Y44.335 E174.26654
G0 F9000 X146.724 Y44.901
G1 F1800 X135.138 Y33.314 E175.77961
G0 F9000 X134.572 Y33.314
G1 F1800 X146.724 Y45.466 E177.36652
G0 F9000 X146.724 Y46.032
G1 F1800 X134.006 Y33.314 E179.02734
G0 F9000 X133.44 Y33.314
G1 F1800 X146.724 Y46.598 E180.76208
G0 F9000 X146.724 Y47.164
