;FLAVOR:UltiGCode
;TIME:17187
;MATERIAL:31666
;MATERIAL2:0
;NOZZLE_DIAMETER:0.4
;MINX:60.373
;MINY:45.99
;MINZ:0.27
;MAXX:172.783
;MAXY:177.812
;MAXZ:31.47
;Generated with Cura_SteamEngine 5.2.2
M82 ;absolute extrusion mode
G0 F3000 Y50 ;avoid prime blob
G92 E0
G92 E0
G10
;LAYER_COUNT:209
;LAYER:0
M107
G0 F9000 X68.692 Y49.336 Z0.27
;TYPE:SKIRT
G11
G1 F1800 X69.175 Y48.712 E0.08522
G1 X69.718 Y48.139 E0.17048
G1 X70.317 Y47.624 E0.25579
G1 X70.965 Y47.173 E0.34106
G1 X71.656 Y46.789 E0.42644
G1 X72.381 Y46.477 E0.51168
G1 X73.134 Y46.24 E0.59694
G1 X73.908 Y46.081 E0.68227
G1 X74.79 Y45.99 E0.77804
G1 X147.905 Y45.99 E8.67446
G1 X148.694 Y46.03 E8.75978
G1 X149.474 Y46.149 E8.84499
G1 X150.239 Y46.347 E8.93033
G1 X150.979 Y46.621 E9.01556
G1 X151.688 Y46.969 E9.10086
G1 X152.359 Y47.387 E9.18623
G1 X152.983 Y47.87 E9.27146
G1 X153.556 Y48.413 E9.35671
G1 X154.071 Y49.012 E9.44203
G1 X154.522 Y49.66 E9.52729
G1 X154.906 Y50.351 E9.61267
G1 X155.218 Y51.076 E9.69791
G1 X155.455 Y51.829 E9.78317
G1 X155.614 Y52.603 E9.86851
G1 X155.705 Y53.485 E9.96427
G1 X155.705 Y108.902 E15.94931
G1 X158.071 Y108.902 E16.20483
G1 X158.637 Y108.923 E16.266
G1 X159.626 Y108.995 E16.3731
G1 X160.715 Y109.152 E16.49193
G1 X161.682 Y109.362 E16.5988
G1 X162.757 Y109.677 E16.71978
G1 X163.675 Y110.02 E16.82562
G1 X164.684 Y110.482 E16.94547
G1 X165.55 Y110.955 E17.05204
G1 X166.48 Y111.551 E17.17133
G1 X167.271 Y112.142 E17.27797
G1 X168.117 Y112.876 E17.39894
G1 X168.809 Y113.568 E17.50463
G1 X169.543 Y114.414 E17.62559
G1 X170.134 Y115.205 E17.73223
G1 X170.73 Y116.135 E17.85153
G1 X171.203 Y117.001 E17.9581
G1 X171.665 Y118.01 E18.07795
G1 X172.008 Y118.928 E18.18379
G1 X172.323 Y120.003 E18.30477
G1 X172.533 Y120.97 E18.41164
G1 X172.69 Y122.058 E18.53036
G1 X172.762 Y123.046 E18.63735
G1 X172.783 Y123.613 E18.69863
G1 X172.783 Y163.1 E22.96322
G1 X172.762 Y163.666 E23.02439
G1 X172.69 Y164.656 E23.13159
G1 X172.534 Y165.744 E23.2503
G1 X172.325 Y166.707 E23.35673
G1 X172.009 Y167.782 E23.47774
G1 X171.665 Y168.703 E23.58392
G1 X171.205 Y169.71 E23.70348
G1 X170.732 Y170.577 E23.81015
G1 X170.131 Y171.513 E23.93028
G1 X169.54 Y172.303 E24.03683
G1 X168.813 Y173.142 E24.15673
G1 X168.121 Y173.835 E24.2625
G1 X167.271 Y174.573 E24.38407
G1 X166.48 Y175.164 E24.49071
G1 X165.547 Y175.762 E24.6104
G1 X164.68 Y176.235 E24.71706
G1 X163.677 Y176.694 E24.83619
G1 X162.76 Y177.037 E24.94193
G1 X161.682 Y177.353 E25.06325
G1 X160.715 Y177.563 E25.17012
G1 X159.619 Y177.721 E25.28971
G1 X158.63 Y177.792 E25.3968
G1 X158.071 Y177.812 E25.45721
G1 X75.085 Y177.812 E34.4197
G1 X74.527 Y177.792 E34.48
G1 X73.537 Y177.721 E34.58719
G1 X72.44 Y177.563 E34.70689
G1 X71.473 Y177.353 E34.81376
G1 X70.393 Y177.036 E34.93532
G1 X69.477 Y176.693 E35.04096
G1 X68.48 Y176.237 E35.15936
G1 X67.612 Y175.764 E35.26612
G1 X66.672 Y175.161 E35.38674
G1 X65.882 Y174.57 E35.49329
G1 X65.039 Y173.839 E35.61379
G1 X64.346 Y173.146 E35.71964
G1 X63.615 Y172.303 E35.84015
G1 X63.024 Y171.513 E35.9467
G1 X62.423 Y170.577 E36.06683
G1 X61.95 Y169.71 E36.1735
G1 X61.49 Y168.703 E36.29306
G1 X61.146 Y167.782 E36.39924
G1 X60.83 Y166.706 E36.52036
G1 X60.621 Y165.742 E36.62689
G1 X60.464 Y164.652 E36.74582
G1 X60.393 Y163.671 E36.85205
G1 X60.373 Y163.108 E36.91289
G1 X60.373 Y123.614 E41.17824
G1 X60.393 Y123.055 E41.23865
G1 X60.464 Y122.066 E41.34574
G1 X60.621 Y120.972 E41.4651
G1 X60.83 Y120.008 E41.57163
G1 X61.146 Y118.932 E41.69275
G1 X61.49 Y118.011 E41.79893
G1 X61.952 Y117.001 E41.91888
G1 X62.425 Y116.135 E42.02545
G1 X63.021 Y115.205 E42.14474
G1 X63.612 Y114.414 E42.25138
G1 X64.35 Y113.564 E42.37296
G1 X65.043 Y112.872 E42.47873
G1 X65.882 Y112.145 E42.59862
G1 X66.672 Y111.554 E42.70518
G1 X67.367 Y111.107 E42.79442
G1 X67.295 Y110.404 E42.87074
G1 X67.295 Y53.79 E48.98505
G1 X67.335 Y53.001 E49.07037
G1 X67.454 Y52.221 E49.15559
G1 X67.652 Y51.456 E49.24093
G1 X67.926 Y50.716 E49.32615
G1 X68.274 Y50.007 E49.41145
G1 X68.692 Y49.336 E49.49683
G0 F9000 X69.089 Y49.467
G1 F1800 X69.57 Y48.867 E49.57988
G1 X70.111 Y48.32 E49.66297
G1 X70.706 Y47.832 E49.74608
G1 X71.348 Y47.409 E49.82911
G1 X72.031 Y47.054 E49.91225
G1 X72.746 Y46.773 E49.99522
G1 X73.488 Y46.567 E50.07838
G1 X74.246 Y46.439 E50.16141
G1 X75.095 Y46.39 E50.25325
G1 X147.905 Y46.39 E58.11673
G1 X148.673 Y46.43 E58.19979
G1 X149.433 Y46.549 E58.28287
G1 X150.176 Y46.747 E58.36591
G1 X150.895 Y47.021 E58.44901
G1 X151.581 Y47.368 E58.53204
G1 X152.228 Y47.784 E58.61511
G1 X152.828 Y48.265 E58.69816
G1 X153.375 Y48.806 E58.78125
G1 X153.863 Y49.401 E58.86436
G1 X154.286 Y50.043 E58.9474
G1 X154.641 Y50.726 E59.03053
G1 X154.922 Y51.441 E59.1135
G1 X155.128 Y52.183 E59.19666
G1 X155.256 Y52.941 E59.27969
G1 X155.305 Y53.79 E59.37153
G1 X155.305 Y109.302 E65.36683
G1 X158.071 Y109.302 E65.66556
G1 X158.608 Y109.322 E65.72359
G1 X159.597 Y109.394 E65.83069
G1 X160.63 Y109.543 E65.94341
G1 X161.597 Y109.753 E66.05028
G1 X162.617 Y110.052 E66.16507
G1 X163.535 Y110.395 E66.27091
G1 X164.492 Y110.833 E66.38458
G1 X165.358 Y111.306 E66.49115
G1 X166.24 Y111.872 E66.60433
G1 X167.031 Y112.463 E66.71097
G1 X167.835 Y113.158 E66.82575
G1 X168.527 Y113.85 E66.93144
G1 X169.222 Y114.654 E67.04622
G1 X169.813 Y115.445 E67.15285
G1 X170.379 Y116.327 E67.26604
G1 X170.852 Y117.193 E67.37261
G1 X171.29 Y118.15 E67.48627
G1 X171.633 Y119.068 E67.59211
G1 X171.932 Y120.088 E67.70691
G1 X172.142 Y121.055 E67.81378
G1 X172.291 Y122.087 E67.92639
G1 X172.363 Y123.075 E68.03338
G1 X172.383 Y123.613 E68.09152
G1 X172.383 Y163.1 E72.35612
G1 X172.364 Y163.637 E72.41415
G1 X172.292 Y164.627 E72.52135
G1 X172.143 Y165.659 E72.63396
G1 X171.934 Y166.622 E72.74039
G1 X171.634 Y167.642 E72.85521
G1 X171.29 Y168.563 E72.96139
G1 X170.854 Y169.518 E73.07477
G1 X170.381 Y170.385 E73.18144
G1 X169.81 Y171.274 E73.29555
G1 X169.219 Y172.064 E73.4021
G1 X168.53 Y172.86 E73.5158
G1 X167.838 Y173.553 E73.62157
G1 X167.031 Y174.252 E73.73688
G1 X166.24 Y174.843 E73.84352
G1 X165.355 Y175.411 E73.95709
G1 X164.488 Y175.884 E74.06375
G1 X163.537 Y176.319 E74.17669
G1 X162.62 Y176.662 E74.28243
G1 X161.597 Y176.962 E74.39757
G1 X160.63 Y177.172 E74.50444
G1 X159.59 Y177.322 E74.61792
G1 X158.336 Y177.412 E74.7537
G1 X74.821 Y177.412 E83.77332
G1 X73.566 Y177.322 E83.90921
G1 X72.525 Y177.172 E84.0228
G1 X71.558 Y176.962 E84.12967
G1 X70.533 Y176.661 E84.24504
G1 X69.617 Y176.318 E84.35068
G1 X68.671 Y175.886 E84.463
G1 X67.803 Y175.413 E84.56976
G1 X66.911 Y174.84 E84.68426
G1 X66.121 Y174.249 E84.79081
G1 X65.321 Y173.557 E84.90505
G1 X64.628 Y172.864 E85.01089
G1 X63.936 Y172.064 E85.12513
G1 X63.345 Y171.274 E85.23168
G1 X62.774 Y170.385 E85.34579
G1 X62.301 Y169.518 E85.45246
G1 X61.865 Y168.563 E85.56584
G1 X61.521 Y167.642 E85.67202
G1 X61.221 Y166.621 E85.78695
G1 X61.012 Y165.657 E85.89348
G1 X60.863 Y164.623 E86.00631
G1 X60.792 Y163.642 E86.11253
G1 X60.773 Y163.108 E86.17024
G1 X60.773 Y123.349 E90.46421
G1 X60.863 Y122.095 E90.59999
G1 X61.012 Y121.057 E90.71324
G1 X61.221 Y120.093 E90.81978
G1 X61.521 Y119.072 E90.9347
G1 X61.865 Y118.151 E91.04088
G1 X62.303 Y117.193 E91.15465
G1 X62.776 Y116.327 E91.26122
G1 X63.342 Y115.445 E91.3744
G1 X63.933 Y114.654 E91.48104
G1 X64.632 Y113.847 E91.59635
G1 X65.325 Y113.155 E91.70211
G1 X66.121 Y112.466 E91.81581
G1 X66.911 Y111.875 E91.92237
G1 X67.804 Y111.302 E92.03696
G1 X67.744 Y110.949 E92.07563
G1 X67.695 Y110.1 E92.16747
G1 X67.695 Y53.79 E98.24895
G1 X67.735 Y53.022 E98.33201
G1 X67.854 Y52.262 E98.41509
G1 X68.052 Y51.519 E98.49813
G1 X68.326 Y50.8 E98.58123
G1 X68.673 Y50.114 E98.66426
G1 X69.089 Y49.467 E98.74733
G0 F9000 X69.487 Y49.601
G1 F1800 X69.966 Y49.027 E98.82808
G1 X70.503 Y48.506 E98.90888
G1 X71.093 Y48.047 E98.98961
G1 X71.729 Y47.652 E99.07047
G1 X72.403 Y47.328 E99.15124
G1 X73.108 Y47.078 E99.23202
G1 X73.836 Y46.904 E99.31286
G1 X74.726 Y46.79 E99.40977
G1 X147.905 Y46.79 E107.3131
G1 X148.652 Y46.83 E107.39389
G1 X149.39 Y46.949 E107.47462
G1 X150.112 Y47.147 E107.55548
G1 X150.808 Y47.42 E107.63622
G1 X151.471 Y47.767 E107.71704
G1 X152.094 Y48.182 E107.79789
G1 X152.668 Y48.661 E107.87863
G1 X153.189 Y49.198 E107.95943
G1 X153.648 Y49.788 E108.04017
G1 X154.043 Y50.424 E108.12102
G1 X154.367 Y51.098 E108.20179
G1 X154.617 Y51.803 E108.28257
G1 X154.791 Y52.531 E108.36341
G1 X154.905 Y53.421 E108.46032
G1 X154.905 Y109.702 E114.53867
G1 X158.332 Y109.702 E114.90878
G1 X159.568 Y109.792 E115.04262
G1 X160.546 Y109.933 E115.14934
G1 X161.513 Y110.143 E115.25621
G1 X162.477 Y110.427 E115.36475
G1 X163.395 Y110.77 E115.47058
G1 X164.3 Y111.184 E115.57807
G1 X165.166 Y111.657 E115.68464
G1 X166.001 Y112.192 E115.79174
G1 X166.792 Y112.783 E115.89838
G1 X167.552 Y113.441 E116.00695
G1 X168.244 Y114.133 E116.11264
G1 X168.902 Y114.893 E116.22121
G1 X169.493 Y115.684 E116.32785
G1 X170.028 Y116.519 E116.43495
G1 X170.501 Y117.385 E116.54152
G1 X170.915 Y118.29 E116.649
G1 X171.258 Y119.208 E116.75484
G1 X171.542 Y120.172 E116.86338
G1 X171.752 Y121.139 E116.97025
G1 X171.892 Y122.116 E117.07684
G1 X171.983 Y123.365 E117.21209
G1 X171.983 Y163.361 E121.53166
G1 X171.893 Y164.598 E121.66561
G1 X171.752 Y165.575 E121.77222
G1 X171.543 Y166.538 E121.87864
G1 X171.26 Y167.502 E121.98715
G1 X170.916 Y168.423 E122.09333
G1 X170.503 Y169.326 E122.20057
G1 X170.03 Y170.193 E122.30723
G1 X169.49 Y171.034 E122.41517
G1 X168.899 Y171.824 E122.52172
G1 X168.247 Y172.577 E122.6293
G1 X167.555 Y173.27 E122.73507
G1 X166.792 Y173.932 E122.84416
G1 X166.001 Y174.523 E122.9508
G1 X165.163 Y175.06 E123.05829
G1 X164.296 Y175.533 E123.16496
G1 X163.396 Y175.944 E123.27181
G1 X162.479 Y176.287 E123.37755
G1 X161.513 Y176.572 E123.48632
G1 X160.546 Y176.782 E123.59319
G1 X159.561 Y176.923 E123.70066
G1 X158.321 Y177.012 E123.83492
G1 X74.835 Y177.012 E132.85141
G1 X73.594 Y176.923 E132.98578
G1 X72.609 Y176.782 E133.09325
G1 X71.642 Y176.572 E133.20012
G1 X70.673 Y176.286 E133.30923
G1 X69.757 Y175.943 E133.41487
G1 X68.863 Y175.535 E133.521
G1 X67.995 Y175.062 E133.62776
G1 X67.151 Y174.52 E133.73609
G1 X66.361 Y173.929 E133.84264
G1 X65.604 Y173.274 E133.95075
G1 X64.911 Y172.581 E134.0566
G1 X64.256 Y171.824 E134.16471
G1 X63.665 Y171.034 E134.27126
G1 X63.125 Y170.193 E134.3792
G1 X62.652 Y169.326 E134.48587
G1 X62.239 Y168.423 E134.59311
G1 X61.895 Y167.502 E134.69929
G1 X61.612 Y166.536 E134.808
G1 X61.403 Y165.572 E134.91453
G1 X61.262 Y164.594 E135.02125
G1 X61.173 Y163.364 E135.15444
G1 X61.173 Y123.364 E139.47444
G1 X61.262 Y122.124 E139.6087
G1 X61.403 Y121.142 E139.71584
G1 X61.612 Y120.178 E139.82237
G1 X61.895 Y119.212 E139.93109
G1 X62.239 Y118.291 E140.03727
G1 X62.654 Y117.385 E140.14489
G1 X63.127 Y116.519 E140.25146
G1 X63.662 Y115.684 E140.35856
G1 X64.253 Y114.893 E140.4652
G1 X64.915 Y114.13 E140.5743
G1 X65.608 Y113.438 E140.68007
G1 X66.361 Y112.786 E140.78764
G1 X67.151 Y112.195 E140.8942
G1 X68.227 Y111.504 E141.0323
G1 X68.095 Y110.468 E141.1451
G1 X68.095 Y53.79 E147.26632
G1 X68.135 Y53.043 E147.34711
G1 X68.254 Y52.305 E147.42784
G1 X68.452 Y51.583 E147.5087
G1 X68.725 Y50.887 E147.58944
G1 X69.072 Y50.224 E147.67026
G1 X69.487 Y49.601 E147.75111
G0 F9000 X69.884 Y49.74
G1 F1800 X70.36 Y49.192 E147.8295
G1 X70.894 Y48.699 E147.90799
G1 X71.479 Y48.269 E147.9864
G1 X72.108 Y47.905 E148.06489
G1 X72.773 Y47.612 E148.14337
G1 X73.466 Y47.394 E148.22183
G1 X74.178 Y47.254 E148.3002
G1 X75.095 Y47.19 E148.39948
G1 X147.905 Y47.19 E156.26296
G1 X148.63 Y47.23 E156.34138
G1 X149.347 Y47.349 E156.41987
G1 X150.046 Y47.547 E156.49833
G1 X150.719 Y47.82 E156.57677
G1 X151.358 Y48.165 E156.6552
G1 X151.955 Y48.579 E156.73366
G1 X152.503 Y49.055 E156.81205
G1 X152.996 Y49.589 E156.89055
G1 X153.426 Y50.174 E156.96896
G1 X153.79 Y50.803 E157.04744
G1 X154.083 Y51.468 E157.12593
G1 X154.301 Y52.161 E157.20439
G1 X154.441 Y52.873 E157.28276
G1 X154.505 Y53.79 E157.38203
G1 X154.505 Y110.102 E163.46373
G1 X158.316 Y110.102 E163.87532
G1 X159.539 Y110.191 E164.00775
G1 X160.461 Y110.324 E164.10836
G1 X161.428 Y110.534 E164.21523
G1 X162.337 Y110.801 E164.31755
G1 X163.255 Y111.144 E164.42338
G1 X164.109 Y111.535 E164.52482
G1 X164.975 Y112.008 E164.63139
G1 X165.761 Y112.513 E164.73229
G1 X166.552 Y113.104 E164.83893
G1 X167.269 Y113.724 E164.9413
G1 X167.961 Y114.416 E165.047
G1 X168.581 Y115.133 E165.14937
G1 X169.172 Y115.924 E165.25601
G1 X169.677 Y116.71 E165.35691
G1 X170.15 Y117.576 E165.46348
G1 X170.541 Y118.43 E165.56491
G1 X170.884 Y119.348 E165.67075
G1 X171.151 Y120.257 E165.77307
G1 X171.361 Y121.224 E165.87994
G1 X171.494 Y122.145 E165.98044
G1 X171.583 Y123.366 E166.11266
G1 X171.583 Y163.345 E170.43039
G1 X171.494 Y164.569 E170.56293
G1 X171.361 Y165.49 E170.66343
G1 X171.152 Y166.453 E170.76986
G1 X170.885 Y167.362 E170.87218
G1 X170.541 Y168.283 E170.97836
G1 X170.152 Y169.135 E171.07951
G1 X169.679 Y170.002 E171.18618
G1 X169.17 Y170.795 E171.28794
G1 X168.579 Y171.585 E171.3945
G1 X167.964 Y172.295 E171.49594
G1 X167.272 Y172.988 E171.60171
G1 X166.552 Y173.611 E171.70454
G1 X165.761 Y174.202 E171.81118
G1 X164.972 Y174.709 E171.91247
G1 X164.105 Y175.182 E172.01913
G1 X163.256 Y175.57 E172.11995
G1 X162.339 Y175.913 E172.22568
G1 X161.428 Y176.181 E172.32824
G1 X160.461 Y176.391 E172.43511
G1 X159.533 Y176.524 E172.53636
G1 X158.307 Y176.612 E172.66911
G1 X74.85 Y176.612 E181.68246
G1 X73.623 Y176.524 E181.81532
G1 X72.694 Y176.391 E181.91668
G1 X71.727 Y176.181 E182.02355
G1 X70.814 Y175.912 E182.12634
G1 X69.898 Y175.569 E182.23198
G1 X69.054 Y175.183 E182.33221
G1 X68.186 Y174.71 E182.43897
G1 X67.39 Y174.2 E182.54107
G1 X66.6 Y173.609 E182.64762
G1 X65.887 Y172.991 E182.74952
G1 X65.194 Y172.298 E182.85537
G1 X64.576 Y171.585 E182.95727
G1 X63.985 Y170.795 E183.06383
G1 X63.476 Y170.002 E183.16559
G1 X63.003 Y169.135 E183.27226
G1 X62.614 Y168.283 E183.37341
G1 X62.27 Y167.362 E183.47959
G1 X62.003 Y166.451 E183.58212
G1 X61.794 Y165.487 E183.68865
G1 X61.661 Y164.565 E183.78926
G1 X61.573 Y163.349 E183.92093
G1 X61.573 Y123.378 E188.2378
G1 X61.661 Y122.152 E188.37054
G1 X61.794 Y121.227 E188.47147
G1 X62.003 Y120.263 E188.578
G1 X62.27 Y119.352 E188.68053
G1 X62.614 Y118.431 E188.78671
G1 X63.005 Y117.576 E188.88825
G1 X63.478 Y116.71 E188.99482
G1 X63.983 Y115.924 E189.09571
G1 X64.574 Y115.133 E189.20235
G1 X65.197 Y114.413 E189.30518
G1 X65.89 Y113.721 E189.41095
G1 X66.6 Y113.106 E189.5124
G1 X67.39 Y112.515 E189.61895
G1 X68.183 Y112.006 E189.72072
G1 X68.698 Y111.725 E189.78408
G1 X68.559 Y111.017 E189.862
G1 X68.495 Y110.1 E189.96128
G1 X68.495 Y53.79 E196.04276
G1 X68.535 Y53.065 E196.12118
G1 X68.654 Y52.348 E196.19968
G1 X68.852 Y51.649 E196.27814
G1 X69.125 Y50.976 E196.35657
G1 X69.47 Y50.337 E196.435
G1 X69.884 Y49.74 E196.51346
G0 F9000 X70.28 Y49.884
G1 F1800 X70.754 Y49.363 E196.58954
G1 X71.284 Y48.899 E196.66561
G1 X71.863 Y48.499 E196.74161
G1 X72.484 Y48.167 E196.81767
G1 X73.138 Y47.907 E196.89368
G1 X73.818 Y47.723 E196.96976
G1 X74.514 Y47.617 E197.04579
G1 X75.095 Y47.59 E197.10861
G1 X147.905 Y47.59 E204.97209
G1 X148.608 Y47.63 E205.04813
G1 X149.302 Y47.749 E205.12418
G1 X149.977 Y47.947 E205.20015
G1 X150.626 Y48.219 E205.27615
G1 X151.24 Y48.564 E205.35221
G1 X151.811 Y48.975 E205.42819
G1 X152.332 Y49.449 E205.50427
G1 X152.796 Y49.979 E205.58034
G1 X153.196 Y50.558 E205.65634
G1 X153.528 Y51.179 E205.7324
G1 X153.788 Y51.833 E205.8084
G1 X153.972 Y52.513 E205.88449
G1 X154.078 Y53.209 E205.96052
G1 X154.105 Y53.79 E206.02334
G1 X154.105 Y110.502 E212.14823
G1 X158.301 Y110.502 E212.6014
G1 X159.51 Y110.59 E212.73232
G1 X160.376 Y110.715 E212.82682
G1 X161.343 Y110.925 E212.93369
G1 X162.197 Y111.176 E213.02982
G1 X163.115 Y111.519 E213.13566
G1 X163.917 Y111.886 E213.23091
G1 X164.783 Y112.359 E213.33748
G1 X165.522 Y112.833 E213.4323
G1 X166.313 Y113.424 E213.53894
G1 X166.986 Y114.007 E213.6351
G1 X167.678 Y114.699 E213.74079
G1 X168.261 Y115.372 E213.83696
G1 X168.852 Y116.163 E213.9436
G1 X169.326 Y116.902 E214.03842
G1 X169.799 Y117.768 E214.14499
G1 X170.166 Y118.57 E214.24024
